static/favicon.svg

<svg xmlns="http://www.w3.org/2000/svg" version="1.1" xmlns:xlink="http://www.w3.org/1999/xlink" xmlns:svgjs="http://svgjs.dev/svgjs" width="1024" height="1024"><svg xmlns="http://www.w3.org/2000/svg" xml:space="preserve" style="fill-rule:evenodd;clip-rule:evenodd;stroke-linejoin:round;stroke-miterlimit:2" viewBox="0 0 1024 1024"><path d="M889.539 228.53v597.402c0 109.317-87.274 198.068-194.772 198.068H305.225c-107.497 0-194.771-88.751-194.771-198.068V228.53c0-109.317 87.274-198.068 194.771-198.068h389.542c107.498 0 194.772 88.751 194.772 198.068Z" style="fill:#fff" transform="matrix(1.04811 0 0 1.03066 -12.05 -31.396)"></path><path d="M889.539 228.53v597.402c0 109.317-87.274 198.068-194.772 198.068H305.225c-107.497 0-194.771-88.751-194.771-198.068V228.53c0-109.317 87.274-198.068 194.771-198.068h389.542c107.498 0 194.772 88.751 194.772 198.068Zm-27.669 0c0-93.787-74.876-169.931-167.103-169.931H305.225c-92.226 0-167.102 76.144-167.102 169.931v597.402c0 93.787 74.876 169.931 167.102 169.931h389.542c92.227 0 167.103-76.144 167.103-169.931V228.53Z" style="fill:#d9d9d9" transform="matrix(1.04811 0 0 1.03066 -12.05 -31.396)"></path><path d="M480.25 156.355c0 161.24-224.25 324.43-224.25 324.43S31.75 317.595 31.75 156.355c0-91.41 70.63-125.13 107.77-125.13 77.65 0 116.48 65.72 116.48 65.72s38.83-65.73 116.48-65.73c37.14.01 107.77 33.72 107.77 125.14" style="fill:#dd524c;fill-rule:nonzero" transform="matrix(.95466 0 0 .95466 267.609 470.814)"></path><path d="M.03 0a.024.024 0 0 1-.015-.006.024.024 0 0 1-.006-.015L.01-.03l.235-.642a.044.044 0 0 1 .012-.019A.038.038 0 0 1 .284-.7h.148c.011 0 .02.003.026.009a.038.038 0 0 1 .013.019l.234.642.002.009A.02.02 0 0 1 .7-.006.02.02 0 0 1 .685 0H.562C.552 0 .544-.002.539-.007A.046.046 0 0 1 .53-.021L.491-.123H.224l-.038.102c-.001.004-.005.009-.009.014C.172-.002.164 0 .153 0H.03Zm.235-.267h.186L.358-.531l-.093.264Z" style="fill:#dd524c;fill-rule:nonzero" transform="matrix(510.35848 0 0 510.35848 329.39 451.456)"></path></svg><style>@media (prefers-color-scheme: light) { :root { filter: none; } }
@media (prefers-color-scheme: dark) { :root { filter: none; } }
</style></svg>

<svg xmlns="http://www.w3.org/2000/svg" version="1.1" xmlns:xlink="http://www.w3.org/1999/xlink" xmlns:svgjs="http://svgjs.dev/svgjs" width="1024" height="1024"><svg viewBox="0 0 1024 1024" version="1.1" xmlns="http://www.w3.org/2000/svg" xmlns:xlink="http://www.w3.org/1999/xlink" xml:space="preserve" xmlns:serif="http://www.serif.com/" style="fill-rule:evenodd;clip-rule:evenodd;stroke-linejoin:round;stroke-miterlimit:2;">
    <g transform="matrix(1.04811,0,0,1.03066,-12.0498,-31.396)">
        <path d="M889.539,228.53L889.539,825.932C889.539,935.249 802.265,1024 694.767,1024L305.225,1024C197.728,1024 110.454,935.249 110.454,825.932L110.454,228.53C110.454,119.213 197.728,30.462 305.225,30.462L694.767,30.462C802.265,30.462 889.539,119.213 889.539,228.53Z" style="fill:white;"></path>
        <path d="M889.539,228.53L889.539,825.932C889.539,935.249 802.265,1024 694.767,1024L305.225,1024C197.728,1024 110.454,935.249 110.454,825.932L110.454,228.53C110.454,119.213 197.728,30.462 305.225,30.462L694.767,30.462C802.265,30.462 889.539,119.213 889.539,228.53ZM861.87,228.53C861.87,134.743 786.994,58.599 694.767,58.599L305.225,58.599C212.999,58.599 138.123,134.743 138.123,228.53L138.123,825.932C138.123,919.719 212.999,995.863 305.225,995.863L694.767,995.863C786.994,995.863 861.87,919.719 861.87,825.932L861.87,228.53Z" style="fill:rgb(217,217,217);"></path>
    </g>
    <g transform="matrix(1.29449,0,0,1.29449,-159.051,-213.428)">
        <g transform="matrix(0.737482,0,0,0.737482,329.597,514.398)">
            <path d="M480.25,156.355C480.25,317.595 256,480.785 256,480.785C256,480.785 31.75,317.595 31.75,156.355C31.75,64.945 102.38,31.225 139.52,31.225C217.17,31.225 256,96.945 256,96.945C256,96.945 294.83,31.215 372.48,31.215C409.62,31.225 480.25,64.935 480.25,156.355" style="fill:rgb(221,82,76);fill-rule:nonzero;"></path>
        </g>
        <g transform="matrix(0.603499,0,0,0.603499,204.433,218.128)">
            <g transform="matrix(518.999,0,0,518.999,334.528,419.143)">
                <path d="M0.03,-0C0.025,-0 0.02,-0.002 0.015,-0.006C0.011,-0.011 0.009,-0.016 0.009,-0.021C0.009,-0.024 0.009,-0.027 0.01,-0.03L0.245,-0.672C0.247,-0.679 0.251,-0.685 0.257,-0.691C0.264,-0.697 0.272,-0.7 0.284,-0.7L0.432,-0.7C0.443,-0.7 0.452,-0.697 0.458,-0.691C0.465,-0.685 0.469,-0.679 0.471,-0.672L0.705,-0.03C0.706,-0.027 0.707,-0.024 0.707,-0.021C0.707,-0.016 0.705,-0.011 0.7,-0.006C0.696,-0.002 0.691,-0 0.685,-0L0.562,-0C0.552,-0 0.544,-0.002 0.539,-0.007C0.535,-0.012 0.531,-0.017 0.53,-0.021L0.491,-0.123L0.224,-0.123L0.186,-0.021C0.185,-0.017 0.181,-0.012 0.177,-0.007C0.172,-0.002 0.164,-0 0.153,-0L0.03,-0ZM0.265,-0.267L0.451,-0.267L0.358,-0.531L0.265,-0.267Z" style="fill:rgb(221,82,76);fill-rule:nonzero;"></path>
            </g>
        </g>
    </g>
</svg><style>@media (prefers-color-scheme: light) { :root { filter: none; } }
@media (prefers-color-scheme: dark) { :root { filter: none; } }
</style></svg>
